sprites/actors/ghost_blinky/blinky_up_alternate.svg

<?xml version="1.0" encoding="UTF-8" standalone="no"?>
<!-- Created with Inkscape (http://www.inkscape.org/) -->

<svg
   width="100"
   height="100"
   viewBox="0 0 100 100"
   version="1.1"
   id="svg5"
   inkscape:version="1.2 (dc2aeda, 2022-05-15)"
   sodipodi:docname="blinky_up_alternate.svg"
   xmlns:inkscape="http://www.inkscape.org/namespaces/inkscape"
   xmlns:sodipodi="http://sodipodi.sourceforge.net/DTD/sodipodi-0.dtd"
   xmlns="http://www.w3.org/2000/svg"
   xmlns:svg="http://www.w3.org/2000/svg">
  <sodipodi:namedview
     id="namedview7"
     pagecolor="#ffffff"
     bordercolor="#000000"
     borderopacity="0.25"
     inkscape:showpageshadow="2"
     inkscape:pageopacity="0.0"
     inkscape:pagecheckerboard="0"
     inkscape:deskcolor="#d1d1d1"
     inkscape:document-units="px"
     showgrid="true"
     inkscape:zoom="5.5731762"
     inkscape:cx="46.382887"
     inkscape:cy="54.99557"
     inkscape:window-width="1920"
     inkscape:window-height="1016"
     inkscape:window-x="0"
     inkscape:window-y="0"
     inkscape:window-maximized="1"
     inkscape:current-layer="layer1">
    <inkscape:grid
       type="xygrid"
       id="grid2865" />
  </sodipodi:namedview>
  <defs
     id="defs2">
    <inkscape:perspective
       sodipodi:type="inkscape:persp3d"
       inkscape:vp_x="0 : 50 : 1"
       inkscape:vp_y="0 : 1000 : 0"
       inkscape:vp_z="100 : 50 : 1"
       inkscape:persp3d-origin="50 : 33.333333 : 1"
       id="perspective5340" />
  </defs>
  <g
     inkscape:label="Layer 1"
     inkscape:groupmode="layer"
     id="layer1">
    <path
       id="path13817"
       style="fill:#d40000;stroke-width:10"
       d="m 88.15059,38.241912 c 1.767402,5.650724 1.513313,11.354806 1.515831,16.912134 0.0069,15.133555 2.336145,24.776064 -0.602871,33.38026 -0.492324,1.441316 -2.867303,4.663372 -4.788694,0.363155 -2.352881,-5.265926 -0.7786,-12.744852 -4.315604,-13.731199 -2.973034,-0.829075 -5.542507,-2.71689 -6.012349,-0.247704 -1.023113,5.376824 1.741044,12.409327 -0.130363,15.216753 -1.957218,2.936158 -4.94485,1.107816 -6.858199,-0.570492 C 64.451496,87.365922 64.188982,79.480897 62.848714,75.136283 61.724518,71.492088 52.442338,70.67168 50.714672,73.56072 c -1.189853,1.989697 1.141324,11.780291 -1.482933,15.241211 -2.118493,2.793911 -7.203865,3.147995 -8.861689,0.10297 C 37.922922,84.410114 38.292668,78.301461 34.827881,75.628422 31.80486,73.2962 35.650976,74.401131 28.316746,75.166048 25.070545,75.504608 19.938382,86.180321 18.112857,88.731531 17.251944,89.934675 13.050904,91.689587 10.989239,85.927659 9.9983419,83.158306 10.528036,56.442006 10.279775,53.627516 8.6674062,35.348351 19.89767,17.771464 38.127833,12.0641 46.669214,9.3900281 55.434158,9.7326425 63.274037,12.49111 74.743495,16.526648 84.233072,25.732745 88.146273,38.228118 L 50.05386,50.157593 Z"
       sodipodi:nodetypes="cssssssssssssssssssccc" />
  </g>
</svg>

<svg width="100" height="100" xmlns="http://www.w3.org/2000/svg"><path d="M88.15 38.242c1.768 5.65 1.514 11.355 1.516 16.912.007 15.134 2.337 24.776-.602 33.38-.493 1.442-2.868 4.664-4.79.363-2.352-5.265-.778-12.744-4.315-13.73-2.973-.83-5.542-2.718-6.012-.248-1.023 5.376 1.74 12.409-.13 15.216-1.958 2.936-4.945 1.108-6.859-.57-2.507-2.2-2.769-10.084-4.11-14.429-1.123-3.644-10.406-4.464-12.133-1.575-1.19 1.99 1.141 11.78-1.483 15.24-2.119 2.795-7.204 3.149-8.862.104-2.447-4.495-2.077-10.604-5.542-13.277-3.023-2.332.823-1.227-6.511-.462-3.246.339-8.379 11.014-10.204 13.566-.861 1.203-5.062 2.958-7.124-2.804-.99-2.77-.461-29.486-.71-32.3-1.612-18.28 9.619-35.857 27.849-41.564a39.74 39.74 0 0 1 25.146.427c11.47 4.036 20.96 13.242 24.872 25.737l-38.092 11.93z" fill="#d40000"/></svg>
